X:1
T:Title
%%score { ( 1 3 ) | ( 2 4 ) }
L:1/8
Q:1/4=108
M:4/4
K:G
V:1 treble nm="Grand Piano"
V:3 treble 
V:2 bass 
V:4 bass 
V:1
 B4 E4 | GFE^D E4 | [Fc]2 [Gc]2 [Ac]2 [Fc]2 | [GB]AGA [^DB]4 | [EB]4 [B,E]4 | GFE^D E4 | %6
w: John~Saunders *||||||
 [Ee]4 c2- [F,^Dc]2 | E2 z2 z4 |] %8
w: ||
V:2
 [E,G,E]4 [E,G,B,]4 | z2 .G,2 z4 | [D,A,]2 [E,A,]2 [F,A,]2 [D,A,]2 | D[CF]E-[C,E,E] [B,,F,]4 | %4
 [E,G,]4 [E,G,]4 | z2 .G,2 z4 | z4 A,2 z2 | B,,-[B,,C] z A, E,4 |] %8
V:3
 x8 | C2 z2 z4 | x8 | x8 | x8 | C2 z2 z4 | z4 E2 z2 | BA[B,EG][B,F] [G,B,E]4 |] %8
V:4
 x8 | [A,,A,]2 [B,,B,]-[B,,F,B,] [E,G,B,]4 | x8 | D,2 .[E,B,]2 z4 | x8 | %5
 [A,,A,]2 [B,,B,]-[B,,F,B,] [E,G,B,]4 | [B,,^G,]4 A,,4 | .G,2 B,,2 z4 |] %8

